app/images/dist/shield.svg

<svg width="24" height="24" viewBox="0 0 24 24" fill="none" xmlns="http://www.w3.org/2000/svg">
<path fill-rule="evenodd" clip-rule="evenodd" d="M4 4.00006L11.6314 2.56917C11.875 2.52349 12.125 2.52349 12.3686 2.56917L20 4.00006V11.9033C20 15.696 18.0462 19.2212 14.83 21.2313L12.53 22.6688C12.2057 22.8715 11.7943 22.8715 11.47 22.6688L9.17001 21.2313C5.95382 19.2212 4 15.696 4 11.9033L4 4.00006Z" stroke="#DC143C"/>
<path fill-rule="evenodd" clip-rule="evenodd" d="M11.1748 14.75C10.9352 14.75 10.6956 14.6542 10.504 14.4625L8.5873 12.5458C8.20397 12.1625 8.20397 11.5875 8.5873 11.2042C8.97064 10.8208 9.59355 10.8208 9.92897 11.2042L11.1748 12.45L14.3373 9.2875C14.7206 8.90417 15.2956 8.90417 15.679 9.2875C16.0623 9.67083 16.0623 10.2458 15.679 10.6292L11.8456 14.4625C11.654 14.6542 11.4144 14.75 11.1748 14.75Z" fill="#DC143C"/>
</svg>

<svg width="24" height="24" fill="none" xmlns="http://www.w3.org/2000/svg"><path clip-rule="evenodd" d="m4 4 7.631-1.43a2 2 0 0 1 .738 0L20 4v7.903a11 11 0 0 1-5.17 9.328l-2.3 1.438a1 1 0 0 1-1.06 0l-2.3-1.438A11 11 0 0 1 4 11.903V4Z" stroke="#DC143C"/><path fill-rule="evenodd" clip-rule="evenodd" d="M11.175 14.75a.946.946 0 0 1-.671-.287l-1.917-1.917a.926.926 0 0 1 0-1.342c.384-.383 1.007-.383 1.342 0l1.246 1.246 3.162-3.162a.926.926 0 0 1 1.342 0 .926.926 0 0 1 0 1.341l-3.833 3.834a.946.946 0 0 1-.671.287Z" fill="#DC143C"/></svg>
